X:1
T:F# minor William Billings, 1770
T:Isaac Watts, 1709 (Hymn 100, Book 1) 88. 88. (L. M.)
T:Westfield No copyright.  Transcribed from The New England Psalm-Singer, 1770.
%%score [ 1 2 3 4 ]
L:1/8
M:3/2
K:A
V:1 treble nm="Treble" snm="Tr."
V:2 treble nm="Counter" snm="C."
V:3 treble-8 nm="Tenor" snm="T."
V:4 bass nm="Bass" snm="B."
V:1
 c4 | c8 e4 | c8 d4 | (e3 d c4) (F2 B2) | A8 B4 | (A4 G4) A4 | (c4 F4) A4 | (d4 c4) c4 | c8 e4 | %9
w: 1.~Not|to con-|demn the|sons * * of *|men Did|Christ, * the|son * of|God, * ap-|pear; No|
 (c4 f4) c4 | (c4 B4) e4 | e8 c4 | c8 A4 | (c3 B A4) B4 | (c3 d e4) e4 | (e3 d c4) c4 | c8 |] %17
w: wea- * pons|in * His|hands are|seen, No|flam- * * ing|sword * * nor|thun- * * der|there.|
V:2
 F4 | (F4 E4) F4 | (F4 G4) A4 | G8 F4 | E8 F4 | (F4 C4) D4 | (E4 F4) C4 | (F4 E4) F4 | F8 G4 | %9
w: 2.~Such|was * the|pi- * ty|of our|God, He|loved * the|race * of|man * so|well, He|
 (F3 G A4) G4 | (F4 E4) A4 | G8 F4 | E8 F4 | (C4 F4) G4 | (A4 G4) F4 | (G4 F4) E4 | F8 |] %17
w: sent * * His|son * to|bear our|load Of|sins, * and|save * our|souls * from|hell.|
V:3
 F4 | (F4 c4) B4 | (A4 e4) f4 | (c3 d e4) d4 | c8 c4 | (c3 d e4) f4 | (e4 d4) c4 | (B4 A4) G4 | %8
w: 3.~Sin-|ners, * be-|lieve * the|Sav- * * ior's|word; Trust|in * * His|migh- * ty|name * and|
 F8 c4 | (A3 B c4) e4 | (A4 d4) c4 | (B4 c2 B2) A4 | G8 c4 | (f4 c4) e4 | (A4 d4) c4 | (B4 A4) G4 | %16
w: live; A|thou- * * sand|joys * His|lips * * af-|ford, His|hands * a|thou- * sand|bles- * sings|
 F8 |] %17
w: give.|
V:4
 F,4 | A,8 G,4 | (F,4 E,4) D,4 | C,8 B,,4 | C,8 F,4 | (F,4 E,4) D,4 | (C,4 B,,4) A,,4 | %7
w: 4.~But|ven- geance|and * dam-|na- tion|lies On|reb- * els|who * re-|
 (B,,4 C,4) C,4 | F,,8 C,4 | F,8 E,4 | (F,4 G,4) A,4 | E,8 F,4 | C,8 F,4 | F,8 E,4 | %14
w: fuse * the|grace; Who|God's e-|ter- * nal|Son des-|pise, The|hot- test|
 (F,4 G,4) A,4 | (E,4 F,4) C,4 | F,,8 |] %17
w: hell * shall|be * their|place.|

